!!!!SEGMENT: pl-wtm--a-33-061-81_krupinski-wiktor--niania-przyszla-dzis-do-mnie.krn
!!!cenid: 19xx:45
!!!COM: Krupiński, Wiktor
!!!COM-rismID: pe50047127
!!!CDT: 1879-1951
!!!CNT: Polish
!!!OTL: Niania/Przyszła dziś do mnie
!!!PDT:
!!!AGN: Secular
!!!YEC: Copyright 2022 Narodowy Instytut Fryderyka Chopina (https://polishscores.org)
!!!YEM: License CC-BY-4.0 (https://creativecommons.org/licenses/by/4.0)
!!!SMS-siglum: PL-Wtm
!!!SMS-shelfmark: A-33.061/81
!!!SMS-variant:
!!!SMS-altvar:
!!!SMS-shelfwork: W
!!!NIFC-rismSourceID: 1001173887
!!!NIFC-rismChildID: 1001173887
!!!NIFC-islandoraID: pl-wtm:36151
!!!URL-pdf-islandora: https://repozytorium.nifc.pl/islandora/object/pl-wtm%3A36151/datastream/PDF/view
!!!URL-scan: https://polish.musicsources.pl/pl/lokalizacje/galeria/druki-muzyczne/21005/2 @EN{Scan on Polish Music Sources Website} @PL{Skany w portalu Dziedzictwo Muzyki Polskiej w otwartym dostępie}
!!!IIIF:
!!!ONB-nifc:
!!!OMD: Andante.
!!!AIN: 1 piano 1 vox
!!!key:
**kern	**kern	**dynam	**kern	**text	**text	**text	**dynam
*part2	*part2	*part2	*part1	*part1	*part1	*part1	*part1
*staff3	*staff2	*	*staff1	*staff1	*staff1	*staff1	*
*I"[Fortepian]	*	*	*I"[Głos]	*	*	*	*
*	*	*	*	*	*	*	*
*Ipiano	*	*	*Ivox	*	*	*	*
*ICklav	*	*	*ICvox	*	*	*	*
*IGacmp	*	*	*IGsolo	*	*	*	*
*clefF4	*clefG2	*	*clefG2	*	*	*	*
*k[b-e-a-]	*k[b-e-a-]	*	*k[b-e-a-]	*	*	*	*
*c:	*c:	*	*c:	*	*	*	*
*M3/4	*M3/4	*	*M3/4	*	*	*	*
=1	=1	=1	=1	=1	=1	=1	=1
8C\L	2.r	.	2.r	.	.	.	.
8D\	.	.	.	.	.	.	.
8E-\	.	.	.	.	.	.	.
8F\	.	.	.	.	.	.	.
8G\	.	.	.	.	.	.	.
8A-\J	.	.	.	.	.	.	.
=2	=2	=2	=2	=2	=2	=2	=2
[2.G\	4r	.	2.r	.	.	.	.
.	4e-\ 4g 4cc	.	.	.	.	.	.
.	4f\ 4a- 4dd	.	.	.	.	.	.
=3	=3	=3	=3	=3	=3	=3	=3
*	*^	*	*	*	*	*	*
2G\_	4g\ 4cc 4ee-	2ryy	.	2.r	.	.	.	.
.	4cc\ 4ee- 4gg	.	.	.	.	.	.	.
4G\] 4f	8.aa-/L	4bn\ 4dd	.	.	.	.	.	.
.	16gg/Jk	.	.	.	.	.	.	.
*	*v	*v	*	*	*	*	*	*
=4	=4	=4	=4	=4	=4	=4	=4
4c\ 4e-	4cc\ 4ccc	.	2.r	.	.	.	.
4r	4r	.	.	.	.	.	.
4r	4r	.	.	.	.	.	.
!!LO:LB:g=original
=5	=5	=5	=5	=5	=5	=5	=5
*^	*	*	*	*	*	*	*
!	!	!LO:TX:b:t=legato	!	!	!	!	!	!
4r	2.C\	(4e-\ 4g 4cc	.	(4cc\	Przy-	Bra-	Cze-	.
(>4G/	.	8e-\L 8g 8cc	.	8cc\	-szła	-ła	-muś	.
.	.	8f\J 8a- 8dd	<	8dd\	dziś	mą	ty,	.
4c/)	.	8.g\L 8.ee-	.	8.ee-\	do	gło-	nia-	.
.	.	16e-\Jk 16cc	[[	16cc\	mnie,	-wę	-niu,	.
*v	*v	*	*	*	*	*	*	*
=6	=6	=6	=6	=6	=6	=6	=6
*	*^	*	*	*	*	*	*
4GG\ 4D 4Bn	8.dd/L	4f\ 4g	.	8.dd\	przy-	w swo-	przy-	.
.	16bn/Jk	.	.	16bn\	-szła	-je	-szła	.
2CC/ 2C	4dd/	4f\ [>4g	>	4dd\	we	dło-	we	.
.	4cc/)	4e-\ 4g]	]]	4cc\)	śnie,	-nie,	śnie,	.
*	*v	*v	*	*	*	*	*	*
=7	=7	=7	=7	=7	=7	=7	=7
*^	*	*	*	*	*	*	*
4FF/	4ryy	(>4c/ 4g 4b-	.	(4b-\	Po-	W pro-	Nie	.
8.F/L	8.F\L	8.f/L 8.a-	.	8.a-/	-czci-	-sta-	do-	.
16E-/Jk	16GG\Jk	16c/Jk) 16g	.	16g/)	-wa	-cze,	-bra,	.
8.D/L	8.AA-\L	(>8.c/L 8.f	.	(>8.f/	sta-	do-	sta-	.
16F/Jk	16GG\Jk	16Bn/Jk 16e-	.	16e-/	-ra	-bre	-ra	.
!!LO:LB:g=original
=8	=8	=8	=8	=8	=8	=8	=8	=8
4rGG	2.CC\	2F/ 2Bn 2d	.	2d/	nia-	rę-	nia-	.
4GG/	.	.	.	.	.	.	.	.
4C/	.	4E-/) 4c	.	4c/)	-nia	-ce	-niu	.
*v	*v	*	*	*	*	*	*	*
=9	=9	=9	=9	=9	=9	=9	=9
*	*^	*	*	*	*	*	*
4C\ 4G 4c	4e-\ 4g 4cc	2ryy	.	(4cc\	I	I	Gdym	.
4BB-\ 4G 4c	8e-\L 8g 8cc	.	.	8cc\	ję-	ko-	już	.
.	8dd\J	.	.	8dd\	-ła	-ły-	po-	.
4AA-\ 4G	8ee-:/L	4c:\ 4g:	.	8ee-\	nu-	-sa-	-grze-	.
.	8cc/J	.	.	8cc\	-cić	-ła	-bał	.
=10	=10	=10	=10	=10	=10	=10	=10	=10
*^	*	*	*	*	*	*	*	*
4F/	8.AA-\L	8.dd/L	8.d\L 8.f	.	8.dd\	ró-	na	wszyst-	.
.	16GG\Jk	16bn/Jk	16d\Jk 16f	.	16bn\	-żne	swym	-kie	.
2CC\ 2C	2ryy	4f\ 4a- 4dd	2ryy	.	4dd\	pie-	ło-	pie-	.
.	.	4e-\ 4g 4cc	.	.	4cc\)	-śnie,	-nie	-śnie	.
!!LO:PB:g=original
=11	=11	=11	=11	=11	=11	=11	=11	=11	=11
4DD/ 4D	4ryy	8b-X/L	4c\ 4d 4f#X	.	(8b-X\	Jak	Wró-	Prócz	.
.	.	16an/L	.	.	16an/	w dniach	-żąc	je-	.
.	.	16b-/JJ	.	.	16b-\	mo-	o	-dnej	.
!	!	!LO:TX:b:t=poco rit.	!	!	!	!	!	!	!
4B-/	2C\ 2D	4dd/	2c\ 2d 2f# 2b-	.	4dd\	-je-	do-	we	.
8.B-/L	.	8.b-/L	.	.	8.b-\	-go	-li	łzach	.
16F#X/Jk	.	16f#/Jk	.	.	16f#X/	za-	w pio-	i	.
=12	=12	=12	=12	=12	=12	=12	=12	=12	=12
4r	2.GG\	2an/	2c\ 2e- 2f#X	.	2an/	-ra-	-sen-	łka-	.
4D/	.	.	.	.	.	.	.	.	.
4G/	.	4g/	4B-\	.	4g/)	-nia	-ce,	-niu?	.
=13	=13	=13	=13	=13	=13	=13	=13	=13	=13
!	!	!LO:TX:b:t=col canto	!	!	!	!	!	!	!
4r	2.GGG\	4d/	4Fn\	.	(>4d/	I	O	Gdy	.
4GG/	.	8.d/L	8.F\L	.	8.d/	po-	ścież-	już	.
.	.	16e-/Jk	16G\Jk	.	16e-/	-trzą-	-kach,	za-	.
4GG/	.	8.f/L	8.A-\L	.	8.f/	-sa-	kwiet-	-pó-	.
.	.	16d/Jk	16F\Jk	.	16d/)	-ła	-nym	-źno	.
!!LO:LB:g=original
=14	=14	=14	=14	=14	=14	=14	=14	=14	=14
4CCC/ 4CC	4ryy	4e-/	4G\	.	(>4e-/	grze-	ko-	po-	.
4A-/	2C\ 2E-	4a-/	2c\ 2e-	.	4a-/	-cho-	-bier-	-czy-	.
4G/	.	4g/	.	.	4g/)	-tką	-cu...	-nać...	.
*v	*v	*	*	*	*	*	*	*	*
=15	=15	=15	=15	=15	=15	=15	=15	=15
4GGG/ 4GG	4bn/	4Bn\ 4f 4g	.	4bn\	I	I	Po	.
8.GGG/L 8.GG	8.b/L	8.B\L 8.f 8.g	.	8.b\	u-	czu-	co	.
16GGG/Jk 16GG	16b/Jk	16B\Jk 16f 16g	.	16b\	-śmie-	-łem	mi	.
!	!	!	!	!	!	!	!	!LO:HP:a
8AAAn/L 8AAn	8cc/L	8c\L 8f	<	8cc\	-cha-	bliz-	by-	<
8BBBn/J 8BBn	8dd/J	8d\J 8f	.	8dd\	-ła	-ko	-ło	[[
=16	=16	=16	=16	=16	=16	=16	=16	=16
!	!	!	!LO:DY:t=p subito	!	!	!	!	!LO:DY:a:t=p subito
4CC/ 4C	4ee-/	4e-\ 4g	[ p	4ee-\	się	przy	wspo-	p
4BBB-X/ 4BB-X	4dd/	4d\ [>4g	.	4dd\	słod-	ser-	-mi-	.
4AAA-X/ 4AA-X	4cc/	4c\ 4g]	.	4cc\	-ko,	-cu,	-nać?	.
!!LO:LB:g=original
=17	=17	=17	=17	=17	=17	=17	=17	=17
!	!LO:TX:b:t=dolce	!	!	!	!	!	!	!
4BBB-/ 4BB-	(4b-/	4d\ 4g	.	4b-\	Po-	Pro-	Nie	.
8.BBBn/L 8.BBn	8.a-/L	8.d\L 8.f	.	8.a-/	-czci-	-sta-	do-	.
16CC/Jk 16C	16g/Jk)	16e-\Jk	.	16g/	-wa,	-cze,	-bra,	.
4GGG/ 4GG	(8.e-/L	8.F\L 8.A-	.	(>8.e-/	sta-	do-	sta-	.
.	16Bn/Jk	16G\Jk	.	16Bn/	-ra	-bre	-ra	.
=18	=18	=18	=18	=18	=18	=18	=18	=18
*^	*	*	*	*	*	*	*	*
4r	2.CC\	2d/)	2F\ [>2G	.	2d/	nia-	rę-	nia-	.
4GG/	.	.	.	.	.	.	.	.	.
8C/L	.	4c/	4E-\ 4G]	.	4c/)	-nia.	-ce.	-niu.	.
8D/J	.	.	.	.	.	.	.	.	.
=19	=19	=19	=19	=19	=19	=19	=19	=19	=19
8E-/L	2.r	2.rff	2ryy	.	2.r	.	.	.	.
8G/J	.	.	.	.	.	.	.	.	.
8c>\L	.	.	.	.	.	.	.	.	.
8d>\J	.	.	.	.	.	.	.	.	.
[4e->\	.	.	8g/L	sf	.	.	.	.	.
.	.	.	8a-/J	.	.	.	.	.	.
*	*	*v	*v	*	*	*	*	*	*
=20	=20	=20	=20	=20	=20	=20	=20	=20
2c>\ 2e->] 2g>	2.rA	2cc/	pp	2.r	.	.	.	.
4ryy	.	4r	.	.	.	.	.	.
*v	*v	*	*	*	*	*	*	*
==	==	==	==	==	==	==	==
*-	*-	*-	*-	*-	*-	*-	*-
!!!system-decoration: s1{(s2,s3)}
!!!RDF**kern: < = below
!!!RDF**kern: > = above
!!!ENC: Berenika Jozajtis
!!!END: 2023-08-26
!!!ENC: Marta Chmielewska
!!!END: 2023-09-22
